X:14
T:Bill Hart's Jig
R:Jig
C:Trad
M:6/8
L:1/8
K:G
|:~D3  ~A3 | BAG ABA | ~D3  ~A3 | BAG EGE |
| ~D3  ~A3 | BAG ABc | d2B cBA | BAG E2G :|
|:d2B c2A | BAG ABc | d2B c2A | BAG E2D |
|d2B c2A | BAG ABc | ded c2A | BAG E2D :|
